X:1
T:Title
%%score { 1 | ( 2 3 ) }
L:1/8
Q:1/4=76
M:4/4
K:Db
V:1 treble nm="Grand Piano"
V:2 bass 
V:3 bass 
V:1
 [FA]>[FA] [FA][Fd] FGBA | [A,D]>[B,DE] [A,DF][B,DG] [A,DF][K:bass][G,CE] [F,D]2 | %2
w: Lewis~Sperry~Chafer * * * * * * *||
 [A,FA]>[A,FA] [A,FA][Fd] FGBA | [EA]>[EB] [Ec][Fd] Bc A2 | e>e dc B[EGc][Fd][FA] | %5
w: |||
 e>e dc B[EGc] [Fd]2 |[M:17/16] [Af]>[Af][Ae][DAd][DAc][DGB][DFA][=G,DF]3/2 | %7
w: ||
[M:4/4][K:bass] [F,B,D]>[=G,DE][K:treble] [A,DF][B,DG] [A,DF][K:bass][_G,CE] [F,D]2 | %8
w: |
 [CA]>[DA] [EA][FA] [GA][GA][EA][CA] | e>e dc [Fd][_FB] [A,=FA]2 | %10
w: ||
 [A,CA]>[B,DA] [CEA][DFA] [EGA][EGA][CEA][A,CA] | .[A,FA][Af][Bd]B Ae [Fd]2 |] %12
w: ||
V:2
 [D,A,]>[D,A,] [D,A,][D,A,] [D,A,D][E,A,C][G,A,C][F,A,D] | F,,>G,, A,,A,, A,,A,, D,2 | %2
 D,>D, D,[D,A,] [D,A,D][E,A,C][G,A,C][F,A,D] | %3
 [C,A,]>[B,,=G,] [A,,A,][D,A,] [E,G,D][E,G,E][K:treble] [A,C]2 | %4
 [A,CG]>[A,CG] [A,B,G][A,CG] [A,DG][K:bass]A,,[D,A,][D,D] | %5
 [A,CG]>[A,CG] [A,B,G][A,CG] [A,DG][K:bass]A,, [D,A,]2 | %6
[M:17/16] [D,D]>[D,D][E,C]F,G,G,,A,,B,,3/2 |[M:4/4] B,,>B,, A,,A,, A,,A,, D,2 | %8
 [A,,E,]>[B,,A,] [C,A,][D,A,] [E,A,][E,A,][C,A,][A,,A,] | %9
 [A,CG]>[A,CG] [A,DF][A,G][K:bass] [D,A,][D,=G,] D,2 | A,,>A,, A,,A,, A,,A,,A,,A,, | %11
 z/ D/[D,D] [G,D][K:treble][=G,D_F] [A,D=F][G,B,G][K:bass] [D,D]2 |] %12
V:3
 x8 | x8 | x8 | x6[K:treble] x2 | x5[K:bass] x3 | x5[K:bass] x3 |[M:17/16] x17/2 |[M:4/4] x8 | x8 | %9
 x4[K:bass] x4 | x8 | .D,2 z2[K:treble] z4[K:bass] |] %12

